X: 788
T: Pig Ankle Rag
C:Mamie Williams, 1905
B: jims roots
B: ralph
M:4/4
L:1/8
R: Ragtime "Grotesque Intermezzo
Q: 1/4=100
K:Dmaj
V:1 
|:af||"A7"gecA- A2 af | gecA- AABA | "D"dABA dABA | dBAF- F2af |
"A7" gecA- A2 af | gecA- AABA | "D"dABA dABA | dBAF- FA ^GA|
"G"B4 dcde | "D"f=f^f"B7"b- baf2 | "E7"B_B^B"A7"c- cfe2 | "D"d6:|
|:cB||"A7"ABcA BcAB | cABc- cB AF | "D"A2dA BdAB | dABd- dBAF |
"A7"ABcA BcAB | cABc- cBAF | "D"A2dA BdAB | dABd- dB A2|
"G"B4 dcde | "D"fa2"B7"b- bafA | "E7"fAfA "A7"afe2 | "D"d6:|
% abcbook-tune_id 6298c279e37e0eadc5e7f7ee


% abcbook-boost 0
% abcbook-tablature 
% abcbook-transpose 
% abcbook-lastupdated 1665486361418
% abcbook-soundfonts 
% abcbook-repeats 1


